assets/images/gas.svg

<svg height="40" viewBox="0 0 40 40" width="40" xmlns="http://www.w3.org/2000/svg"><g fill="#1c6afd" fill-rule="evenodd"><rect fill-opacity=".05" height="40" rx="5" width="40"/><path d="m23.7985915 11c.515493 0 .9338108.4183099.9338108.9338028l-.0004023.4151972 1.4940563.001c1.5295775 0 2.7739437 1.2443662 2.7739437 2.7739437v11.7950704c0 1.5316901-1.2443662 2.7760563-2.7739437 2.7760563h-12.4521126c-1.5295775 0-2.7739437-1.2443662-2.7739437-2.7760563v-11.7950704c0-1.5295775 1.2443662-2.7739437 2.7739437-2.7739437l.9250563-.001.0002958-.4151972c0-.5154929.4183098-.9338028.9338028-.9338028.5154929 0 .9338028.4183099.9338028.9338028l-.0009014.4151972h6.298l.0007887-.4151972c0-.5154929.4183099-.9338028.9338028-.9338028zm-9.0995915 3.219-.9250563.0007183c-.4985916 0-.9042254.4056338-.9042254.9042254v11.7950704c0 .4985915.4056338.9042253.9042254.9042253h12.4521126c.4985916 0 .9042254-.4056338.9042254-.9042253v-11.7950704c0-.4985916-.4056338-.9042254-.9042254-.9042254l-1.4940563-.0007183.0004023.4190282c.0021047.5154929-.4162051.9338028-.9338108.9338028-.5154929 0-.9338028-.4183099-.9338028-.9338028l-.0007887-.4190282h-6.298l.0009014.4190282c0 .5154929-.4183099.9338028-.9338028.9338028-.515493 0-.9338028-.4183099-.9338028-.9338028zm8.1721268 3.2669155c.3654929.365493.3654929.9570422 0 1.3225352l-.8451268.8445493.3887887.0005211c.515493 0 .9338028.4183099.9338028.9338028 0 .515493-.4183098.9338029-.9338028.9338029l-1.4817887-.0001268v.9l1.4817887.0001268c.515493 0 .9338028.4183098.9338028.9338028 0 .5154929-.4183098.9338028-.9338028.9338028l-1.4817887-.0007324.0008028.8605915c0 .515493-.4183098.9338029-.9338028.9338029s-.9338028-.4183099-.9338028-.9338029l-.0001972-.8605915-1.4807887.0007324c-.515493 0-.9338028-.4183099-.9338028-.9338028 0-.515493.4183098-.9338028.9338028-.9338028l1.4807887-.0001268v-.9l-1.4807887.0001268c-.515493 0-.9338028-.4183099-.9338028-.9338029 0-.5154929.4183098-.9338028.9338028-.9338028l.3517887-.0005211-.8081268-.8086338c-.3654929-.365493-.3654929-.9570423 0-1.3225352.365493-.365493.9570423-.365493 1.3225353 0l1.5305915 1.530169 1.5665915-1.5660845c.365493-.365493.9570423-.365493 1.3225353 0z" fill-rule="nonzero" opacity=".5"/></g></svg>

<?xml version="1.0" encoding="UTF-8"?>
<svg width="40px" height="40px" viewBox="0 0 40 40" version="1.1" xmlns="http://www.w3.org/2000/svg" xmlns:xlink="http://www.w3.org/1999/xlink">
    <title>编组 14</title>
    <g id="20220814" stroke="none" stroke-width="1" fill="none" fill-rule="evenodd">
        <g id="切图" transform="translate(-223.000000, -144.000000)" fill="#1C6AFD">
            <g id="编组-14" transform="translate(223.000000, 144.000000)">
                <rect id="矩形" fill-opacity="0.05" x="0" y="0" width="40" height="40" rx="5"></rect>
                <path d="M23.7985915,11 C24.3140845,11 24.7324023,11.4183099 24.7324023,11.9338028 L24.732,12.349 L26.2260563,12.35 C27.7556338,12.35 29,13.5943662 29,15.1239437 L29,26.9190141 C29,28.4507042 27.7556338,29.6950704 26.2260563,29.6950704 L13.7739437,29.6950704 C12.2443662,29.6950704 11,28.4507042 11,26.9190141 L11,15.1239437 C11,13.5943662 12.2443662,12.35 13.7739437,12.35 L14.699,12.349 L14.6992958,11.9338028 C14.6992958,11.4183099 15.1176056,11 15.6330986,11 C16.1485915,11 16.5669014,11.4183099 16.5669014,11.9338028 L16.566,12.349 L22.864,12.349 L22.8647887,11.9338028 C22.8647887,11.4183099 23.2830986,11 23.7985915,11 Z M14.699,14.219 L13.7739437,14.2197183 C13.2753521,14.2197183 12.8697183,14.6253521 12.8697183,15.1239437 L12.8697183,26.9190141 C12.8697183,27.4176056 13.2753521,27.8232394 13.7739437,27.8232394 L26.2260563,27.8232394 C26.7246479,27.8232394 27.1302817,27.4176056 27.1302817,26.9190141 L27.1302817,15.1239437 C27.1302817,14.6253521 26.7246479,14.2197183 26.2260563,14.2197183 L24.732,14.219 L24.7324023,14.6380282 C24.734507,15.1535211 24.3161972,15.571831 23.7985915,15.571831 C23.2830986,15.571831 22.8647887,15.1535211 22.8647887,14.6380282 L22.864,14.219 L16.566,14.219 L16.5669014,14.6380282 C16.5669014,15.1535211 16.1485915,15.571831 15.6330986,15.571831 C15.1176056,15.571831 14.6992958,15.1535211 14.6992958,14.6380282 L14.699,14.219 Z M22.8711268,17.4859155 C23.2366197,17.8514085 23.2366197,18.4429577 22.8711268,18.8084507 L22.026,19.653 L22.4147887,19.6535211 C22.9302817,19.6535211 23.3485915,20.071831 23.3485915,20.5873239 C23.3485915,21.1028169 22.9302817,21.5211268 22.4147887,21.5211268 L20.933,21.521 L20.933,22.421 L22.4147887,22.4211268 C22.9302817,22.4211268 23.3485915,22.8394366 23.3485915,23.3549296 C23.3485915,23.8704225 22.9302817,24.2887324 22.4147887,24.2887324 L20.933,24.288 L20.9338028,25.1485915 C20.9338028,25.6640845 20.515493,26.0823944 20,26.0823944 C19.484507,26.0823944 19.0661972,25.6640845 19.0661972,25.1485915 L19.066,24.288 L17.5852113,24.2887324 C17.0697183,24.2887324 16.6514085,23.8704225 16.6514085,23.3549296 C16.6514085,22.8394366 17.0697183,22.4211268 17.5852113,22.4211268 L19.066,22.421 L19.066,21.521 L17.5852113,21.5211268 C17.0697183,21.5211268 16.6514085,21.1028169 16.6514085,20.5873239 C16.6514085,20.071831 17.0697183,19.6535211 17.5852113,19.6535211 L17.937,19.653 L17.1288732,18.8443662 C16.7633803,18.4788732 16.7633803,17.8873239 17.1288732,17.521831 C17.4943662,17.156338 18.0859155,17.156338 18.4514085,17.521831 L19.982,19.052 L21.5485915,17.4859155 C21.9140845,17.1204225 22.5056338,17.1204225 22.8711268,17.4859155 Z" id="形状结合" fill-rule="nonzero" opacity="0.5"></path>
            </g>
        </g>
    </g>
</svg>
